public/img/icon-helmet.svg

<?xml version="1.0" ?><!DOCTYPE svg  PUBLIC '-//W3C//DTD SVG 1.1//EN'  'http://www.w3.org/Graphics/SVG/1.1/DTD/svg11.dtd'><svg enable-background="new 0 0 80 80" height="80px" id="Layer_1" version="1.1" viewBox="0 0 80 80" width="80px" xml:space="preserve" xmlns="http://www.w3.org/2000/svg" xmlns:xlink="http://www.w3.org/1999/xlink"><g><path d="M67,40.228C67,21.31,55.807,12,42,12   s-25,9.31-25,28.228C17,50.5,19.5,54.75,22,57s11.25,7,20,7" fill="none" stroke="#0E1A36" stroke-miterlimit="10" stroke-width="2"/><path d="M58,47c1.61-2.16,3-3.857,3-7.127   c0-7.897-7.103-15.293-19-15.293s-19,7.396-19,15.293c0,2.781,0.693,5.149,1.891,7.123L31,52l1.6,3.2   c0.245,0.49,0.746,0.8,1.294,0.8h16.212c0.548,0,1.049-0.31,1.294-0.8L53,52L58,47z" fill="none" stroke="#0E1A36" stroke-miterlimit="10" stroke-width="2"/><path d="M67,40.228C67,50.5,64.5,54.75,62,57s-11.25,7-20,7   " fill="none" stroke="#0E1A36" stroke-miterlimit="10" stroke-width="2"/><path d="M16.997,32.664C20.513,34.057,23,37.488,23,41.5   c0,3.618-2.023,6.764-4.999,8.368" fill="none" stroke="#0E1A36" stroke-miterlimit="10" stroke-width="2"/><path d="M67,32.664c-3.516,1.393-6.003,4.824-6.003,8.836   c0,3.618,2.023,6.764,4.999,8.368" fill="none" stroke="#0E1A36" stroke-miterlimit="10" stroke-width="2"/><line fill="none" stroke="#0E1A36" stroke-miterlimit="10" stroke-width="2" x1="24" x2="28" y1="52" y2="56"/><line fill="none" stroke="#0E1A36" stroke-miterlimit="10" stroke-width="2" x1="60" x2="56" y1="52" y2="56"/></g></svg>

<?xml version="1.0" encoding="UTF-8" standalone="no"?>
<!DOCTYPE svg PUBLIC "-//W3C//DTD SVG 1.1//EN" "http://www.w3.org/Graphics/SVG/1.1/DTD/svg11.dtd">
<svg width="100%" height="100%" viewBox="0 0 80 80" version="1.1" xmlns="http://www.w3.org/2000/svg" xmlns:xlink="http://www.w3.org/1999/xlink" xml:space="preserve" xmlns:serif="http://www.serif.com/" style="fill-rule:evenodd;clip-rule:evenodd;stroke-miterlimit:10;">
    <g transform="matrix(1,0,0,1,-2,2)">
        <path d="M67,40.228C67,21.31 55.807,12 42,12C28.193,12 17,21.31 17,40.228C17,50.5 19.5,54.75 22,57C24.5,59.25 33.25,64 42,64" style="fill:none;fill-rule:nonzero;stroke:rgb(14,26,54);stroke-width:2px;"/>
        <path d="M58,47C59.61,44.84 61,43.143 61,39.873C61,31.976 53.897,24.58 42,24.58C30.103,24.58 23,31.976 23,39.873C23,42.654 23.693,45.022 24.891,46.996L31,52L32.6,55.2C32.845,55.69 33.346,56 33.894,56L50.106,56C50.654,56 51.155,55.69 51.4,55.2L53,52L58,47Z" style="fill:none;fill-rule:nonzero;stroke:rgb(14,26,54);stroke-width:2px;"/>
        <path d="M67,40.228C67,50.5 64.5,54.75 62,57C59.5,59.25 50.75,64 42,64" style="fill:none;fill-rule:nonzero;stroke:rgb(14,26,54);stroke-width:2px;"/>
        <path d="M16.997,32.664C20.513,34.057 23,37.488 23,41.5C23,45.118 20.977,48.264 18.001,49.868" style="fill:none;fill-rule:nonzero;stroke:rgb(14,26,54);stroke-width:2px;"/>
        <path d="M67,32.664C63.484,34.057 60.997,37.488 60.997,41.5C60.997,45.118 63.02,48.264 65.996,49.868" style="fill:none;fill-rule:nonzero;stroke:rgb(14,26,54);stroke-width:2px;"/>
        <path d="M24,52L28,56" style="fill:none;fill-rule:nonzero;stroke:rgb(14,26,54);stroke-width:2px;"/>
        <path d="M60,52L56,56" style="fill:none;fill-rule:nonzero;stroke:rgb(14,26,54);stroke-width:2px;"/>
    </g>
</svg>
